X:1
T:Responsum accepit Simeon - Giorgi
T:James Gibb editions
T:#
%%score [ 1 2 3 ] 4
L:1/8
Q:1/4=80
M:4/4
K:D
V:1 treble nm="Soprano" snm="S"
V:2 treble nm="Alto" snm="A"
V:3 treble-8 nm="Tenor" snm="T"
V:4 bass nm="Midi_20"
V:1
"^Responsum accepit Simeon""^Giovanni Giorgi\n(?-1762)""^Antiphon II ad Laudes\nin festo Purificationis BVM" z2 e2 (A>^G) A2 | %1
w: Re- spon\- * sum|
 z BEB c>B Ac | fe/f/ d2 c2 z2 | z2 ee e2 ^dd | eB z2 z4 | e3 d/c/ (Bc d) (e/d/) | %6
w: ac- ce- pit Si- me- on a|Spi- ri- tu San- cto|non vi- su- rum se|mor- tem|ni- si vi- de\- * * ret *|
 (c/d/c/B/ A3 ^G/F/ G>)A | A2 z2 z4 | z2 e2 (A>^G) A2 | z eAe f>e dA | BA/B/ (AG) F2 z2 | %11
w: Do\- * * * * * * * mi-|num,|re- spon\- * sum|ac- ce- pit Si- me- on a|Spi- ri- tu San\- * cto,|
 z2 AA A2 ^GG | AE z2 z2 e2 | (A>^G) A2 z BEB | c>B A2 z2 ff | f2 ^ee (fF/^G/ A2 | ^G4) F4 | z8 | %18
w: non vi- su- rum se|mor- tem, re-|spon\- * sum ac- ce- pit|Si- me- on non vi-|su- rum se mor\- * * *|* tem||
 z2 dd d2 cc | dA z2 (e2- e/d/)c/B/ | (AB c) (d/c/) (BE A2- | A^G/F/ G>)A A2 z2 | B3 A/B/ (^GAB)c | %23
w: Non vi- su- rum se|mor- tem, ni\- * * si vi-|de\- * * ret * Do\- * *|* * * * mi- num,|ni- si vi- de\- * * ret|
 (d4[Q:1/4=77] c4 | %24
w: Do\- *|
[Q:1/4=75] B[Q:1/4=74]e/[Q:1/4=74]d/[Q:1/4=73] c[Q:1/4=72]B/[Q:1/4=72]A/[Q:1/4=70] B3)[Q:1/4=68] B | %25
w: * * * * * * * mi-|
[Q:1/4=68] A8 |] %26
w: num.|
V:2
 z8 | z8 | z4 z2 A2 | (E>^D) E2 z FB,F | ^G>F EG cB/c/ A2 | ^G2 AA A2 GG | AE z2 z4 | %7
w: ||Re-|spon\- * sum ac- ce- pit|Si- me- on a Spi- ri- tu San-|cto non vi- su- rum se|mor- tem,|
 (A2- A/G/)F/E/ (DE F) (G/F/) | E3 D C2 z2 | z4 z2 DD | D2 CC DA, A2- | A^G/F/ EF (D3 E/D/ | %12
w: ni\- * * si vi- de\- * * ret *|Do- mi- num,|non vi-|su- rum se mor- tem ni\-|* si vi- de- ret Do\- * *|
 CB,/A,/ AA A2 ^GG | (^GF/^E/) F2 z4 | z2 c2 F>^E) F2 | z ^GCG A>G Fc | dc/d/ B2 ^A2 z2 | %17
w: * mi- num, non vi- su- rum se|mor\- * * tem|re- spon\- * sum|ac- ce- pit Si- me- on a|Spi- ri- tu San- cto|
 z2 BB B2 ^AA | BF z2 z2 GG | G2 FF (G3 A/G/ | F^G A2) G2 z2 | (B2- B/A/)^G/F/ (EF G) (A/G/) | %22
w: non vi- su- rum se|mor- tem non vi-|su- rum se mor\- * *|* * * tem,|ni\- * * si vi- de\- * * ret *|
 F3 F E E2 D/C/ | (B,CD)E (F^G AG/F/ | ^G2 A4) G2 | A8 |] %26
w: Do- mi- num ni- si vi-|de\- * * ret Do\- * * * *|* * mi-|num.|
V:3
 z8 | z8 | z8 | z8 | z8 | z4 z2 e2 | (A>^G) A2 z BEB | c>B Ac fe/f/ d2 | c2 z2 z2 dd | %9
w: |||||Re-|spon\- * sum ac- ce- pit|Si- me- on a Spi- ri- tu San-|cto non vi-|
 d2 cc dA z2 | z4 d3 c/B/ | (AB c) (d/c/) B3 B | A2 z2 z4 | z2 AA A2 ^GG | AE ed/c/ d2 (Bd) | %15
w: su- rum se mor- tem|ni- si vi-|de\- * * ret * Do- mi-|num,|non vi- su- rum se|mor- tem, ni- si vi- de- ret *|
 c>c c2 z2 ff | f2 ^ee fF z f | (B>^A) B2 z cFc | d>c Bd gf/g/ e2 | d2 dd d2 cc | d2 A2 e3 d/c/ | %21
w: Do- mi- num, non vi-|su- rum se mor- tem, re-|spon\- * sum ac- ce- pit|Si- me- on a Spi- ri- tu San-|cto non vi- su- rum se|mor- tem ni- si vi-|
 (Bc d) (e/d/) (c^d e2- | e^d/c/ d>)e e2 z2 | =d3 c/B/ (ABc)d | (e2 A2 E3) E | A8 |] %26
w: de\- * * ret * Do\- * *|* * * * mi- num|ni- si vi- de\- * * ret|Do\- * * mi-|num.|
V:4
 A,2 ^G,2 F,2 C,2 | D,2 E,2 A,B,CA, | DC B,2 A,B,CA, | ^G,F,G,E, A,2 B,2 | E,F,^G,E, A,G, F,2 | %5
w: * 6 * 6|6 S * * * *|* * 7S6 * * * *|* * * * 6 S|S * * * * * 7S6|
w: |5 * * * * *||* * * * 5 *||
 E,2 F,2 D,2 E,2 | A,2 C,2 D,2 E,2 | A,,2 C,2 D,C,B,,G,, | A,,2 A,B, CA,DF, | G,2 A,2 D,E,F,D, | %10
w: S * 6 7|* 6 6 S|* 6 * * 5 *|* * * 6 * * *|6 * * * * *|
w: * * 5 S|* * 5 *|||5 * * * * *|
 G,F,/G,/ A,A,, D,E,F,D, | C,B,,A,,D, B,,2 E,2 | A,2 C,2 D,2 E,2 | F,2 D,F, E,2 E,,2 | %14
w: |6 * * * 7 S|* 6 6 S|9~8 5 * 4 3|
w: ||* * 5 *|S * * * *|
 A,,2 C,2 D,4 | C,4 F,3 A, | B,A,^G,C F,2 B,A, | =G,2 D,2 E,2 F,2 | B,3 B, G,F,E,A, | D,2 D4 C2 | %20
w: * 6 7~6|4~S3 * 6|S~6 * * S S * *|* 6 6 S|* * * * * 7|4 3~4 6|
w: ||~~5 * * * * * *|* * 5 *||* ~~2 *|
 D2 A,2 EE, F,>E, | D, C, B,, E, A,2 E,2 | B,2 B,,2 E,F,^G,A, | B,2 B,,2 F,2 C,D, | E,8 | A,,8 |] %26
w: * * S * 7 6|6 * * S * S|4 S3 * * * *|4 * * 6 *|S~6~4~3||
w: |5 * * * * *|||~~4||

